public/logos/lufthansa.svg

<svg xmlns="http://www.w3.org/2000/svg" xml:space="preserve" style="fill-rule:evenodd;clip-rule:evenodd;stroke-linejoin:round;stroke-miterlimit:1.41421" viewBox="0 0 3326 586"><path d="M0 0c-1.616 0-2.976-.042-3.741-.127-.893-1.616-2.211-3.784-4.167-6.803 30.44 0 58.075-2.508 88.642-7.992l-8.63-8.333c-27.592 4.889-50.507 6.844-79.714 6.844-4.251 0-5.144 0-6.164-.042-1.021-1.53-3.317-4.506-5.612-7.27 2.593.17 7.61.255 14.539.255 24.021 0 46.468-1.785 70.829-5.697l-8.631-8.375c-18.536 2.891-41.196 4.549-61.518 4.549-7.227 0-15.432-.255-22.787-.68-1.658-1.913-5.994-6.59-7.312-8.035 9.735 1.02 20.449 1.488 33.203 1.488 18.154 0 35.5-1.191 51.91-3.614l-8.631-8.29c-11.691 1.445-25.891 2.295-38.432 2.295-32.353 0-57.862-7.014-84.221-23.127 25.126-26.954 66.28-44.002 106.158-44.002h3.741l-13.944-13.479c-57.522 10.8-118.062 36.096-169.206 70.746-49.189 33.203-66.407 43.023-104.797 59.986l-.255 9.864 25.976-11.139 8.843 7.015 84.815-38.858-5.527-4.421-43.534 18.918-4.294-3.358 22.618-12.627c19.089-10.629 33.628-15.39 47.063-15.39 29.377 0 55.736 20.832 72.741 57.436 12.797 1.659 26.444 2.424 42.854 2.424C26.486 10.161 59.179 6.93 96.209 0l-9.013-8.715C64.154-3.911 24.998 0 0 0m-82.435-242.117c-110.338 0-199.842 89.504-199.842 199.842s89.504 199.843 199.842 199.843S117.407 68.063 117.407-42.275 27.903-242.117-82.435-242.117m0 412.44c-117.566 0-212.599-95.031-212.599-212.598s95.033-212.599 212.599-212.599c117.567 0 212.599 95.032 212.599 212.599S35.132 170.323-82.435 170.323M479.229-126.91h121.89v-57.098H413.628V99.458h65.601zM748.521 20.087h61.146v-204.095h-57.501v23.487c-8.505-15.793-25.916-29.56-57.909-29.56-52.236 0-79.368 23.487-79.368 90.708v119.46h61.147V-96.537c0-27.133 11.745-39.28 36.446-39.28 22.272 0 36.039 12.147 36.039 39.28zm108.122 7.693c0 49.403 31.183 75.727 80.181 75.727 15.795 0 25.917-2.43 25.917-2.43V51.674s-8.504.807-15.795.807c-19.032 0-29.157-6.479-29.157-24.296v-8.098h44.952v-49.809h-44.952v-154.286h-61.146v154.286h-30.775v49.809h30.775zm213.807-7.693h46.57v-49.809h-46.57v-79.37c0-21.868 11.34-27.537 29.16-27.537 7.29 0 17.41 1.214 17.41 1.214v-48.998s-14.17-3.238-29.15-3.238c-49 0-78.56 22.271-78.56 71.673v86.256h-30.78v49.809h30.78v59.527h61.14zm181.95 6.074c51.84 0 78.97-23.486 78.97-90.708v-119.461h-61.15v116.627c0 27.13-11.74 39.277-37.25 39.277-23.09 0-36.85-12.147-36.85-39.277v-116.627h-61.15v283.06h61.55V.245c10.53 14.984 27.13 25.916 55.88 25.916m234.87-130.798c0-22.273-21.06-38.877-53.45-38.877-15.79 0-25.11 7.289-25.11 21.059 0 10.528 6.48 19.436 27.14 22.269l35.23 4.862c6.07.811 12.55 2.024 16.19 3.239zM1453.26 26.16c-60.34 0-89.5-23.083-91.92-66.412h59.52c.81 11.34 7.29 19.844 32.4 19.844 22.27 0 32.8-7.291 32.8-18.222 0-9.722-6.08-13.365-21.06-14.984l-38.87-4.049c-52.65-5.668-76.54-27.537-76.54-67.224 0-36.849 22.68-65.194 70.87-65.194 32.8 0 52.24 10.528 69.24 31.587v-25.514h55.89V-49.97c0 56.288-32.8 76.13-92.33 76.13m233.72.001c53.05 0 80.18-23.486 80.18-90.708v-119.461h-61.15v116.627c0 27.13-11.74 39.277-37.25 39.277-23.09 0-36.85-12.147-36.85-39.277v-116.627h-61.15V20.086h57.5V-3.402c8.51 15.795 25.92 29.563 58.72 29.563m209.17-82.204c51.83-6.886 77.75-23.083 77.75-65.603 0-42.925-30.37-68.436-94.76-68.436-70.05 0-94.76 27.939-95.97 68.843h60.34c1.62-14.986 12.14-22.275 35.63-22.275 23.89 0 33.61 5.671 33.61 17.008 0 10.528-8.1 15.387-29.15 18.222l-21.47 2.837c-44.95 6.073-70.86 23.485-70.86 63.981 0 38.875 28.75 67.627 89.09 67.627 55.88 0 85.85-22.272 88.68-66.412h-59.53c-2.02 11.741-8.5 19.032-29.15 19.032-20.25 0-27.94-6.885-27.94-15.795 0-8.906 4.86-13.766 22.27-16.197zm230.82-48.598c0-22.27-21.06-38.873-53.45-38.873-15.8 0-25.11 7.289-25.11 21.059 0 10.528 6.48 19.436 27.13 22.269l35.23 4.862c6.08.807 12.55 2.024 16.2 3.239zM2092.95 26.16c-60.33 0-89.49-23.083-91.92-66.412h59.53c.81 11.34 7.29 19.841 32.39 19.841 22.28 0 32.81-7.288 32.81-18.222 0-9.719-6.08-13.362-21.06-14.981l-38.88-4.049c-52.64-5.671-76.53-27.538-76.53-67.224 0-36.849 22.67-65.194 70.86-65.194 32.8 0 52.24 10.528 69.25 31.587v-25.514h55.88V-49.97c0 56.285-32.8 76.13-92.33 76.13" style="fill:#0a1d3d;fill-rule:nonzero" transform="matrix(1.33333 0 0 -1.33333 402.827 236.545)"/></svg>

<?xml version="1.0" encoding="UTF-8" standalone="no"?>
<!DOCTYPE svg PUBLIC "-//W3C//DTD SVG 1.1//EN" "http://www.w3.org/Graphics/SVG/1.1/DTD/svg11.dtd">
<svg width="100%" height="100%" viewBox="0 0 3326 586" version="1.1" xmlns="http://www.w3.org/2000/svg" xmlns:xlink="http://www.w3.org/1999/xlink" xml:space="preserve" xmlns:serif="http://www.serif.com/" style="fill-rule:evenodd;clip-rule:evenodd;stroke-linejoin:round;stroke-miterlimit:1.41421;">
    <g id="path22" transform="matrix(1.33333,0,0,-1.33333,402.827,236.545)">
        <path d="M0,0C-1.616,0 -2.976,-0.042 -3.741,-0.127C-4.634,-1.743 -5.952,-3.911 -7.908,-6.93C22.532,-6.93 50.167,-9.438 80.734,-14.922L72.104,-23.255C44.512,-18.366 21.597,-16.411 -7.61,-16.411C-11.861,-16.411 -12.754,-16.411 -13.774,-16.453C-14.795,-17.983 -17.091,-20.959 -19.386,-23.723C-16.793,-23.553 -11.776,-23.468 -4.847,-23.468C19.174,-23.468 41.621,-25.253 65.982,-29.165L57.351,-37.54C38.815,-34.649 16.155,-32.991 -4.167,-32.991C-11.394,-32.991 -19.599,-33.246 -26.954,-33.671C-28.612,-35.584 -32.948,-40.261 -34.266,-41.706C-24.531,-40.686 -13.817,-40.218 -1.063,-40.218C17.091,-40.218 34.437,-41.409 50.847,-43.832L42.216,-52.122C30.525,-50.677 16.325,-49.827 3.784,-49.827C-28.569,-49.827 -54.078,-56.841 -80.437,-72.954C-55.311,-99.908 -14.157,-116.956 25.721,-116.956L29.462,-116.956L15.518,-130.435C-42.004,-119.635 -102.544,-94.339 -153.688,-59.689C-202.877,-26.486 -220.095,-16.666 -258.485,0.297L-258.74,10.161L-232.764,-0.978L-223.921,6.037L-139.106,-32.821L-144.633,-37.242L-188.167,-18.324L-192.461,-21.682L-169.843,-34.309C-150.754,-44.938 -136.215,-49.699 -122.78,-49.699C-93.403,-49.699 -67.044,-28.867 -50.039,7.737C-37.242,9.396 -23.595,10.161 -7.185,10.161C26.486,10.161 59.179,6.93 96.209,0L87.196,-8.715C64.154,-3.911 24.998,0 0,0M-82.435,-242.117C-192.773,-242.117 -282.277,-152.613 -282.277,-42.275C-282.277,68.063 -192.773,157.568 -82.435,157.568C27.903,157.568 117.407,68.063 117.407,-42.275C117.407,-152.613 27.903,-242.117 -82.435,-242.117M-82.435,170.323C-200.001,170.323 -295.034,75.292 -295.034,-42.275C-295.034,-159.842 -200.001,-254.874 -82.435,-254.874C35.132,-254.874 130.164,-159.842 130.164,-42.275C130.164,75.292 35.132,170.323 -82.435,170.323M479.229,-126.91L601.119,-126.91L601.119,-184.008L413.628,-184.008L413.628,99.458L479.229,99.458L479.229,-126.91ZM748.521,20.087L809.667,20.087L809.667,-184.008L752.166,-184.008L752.166,-160.521C743.661,-176.314 726.25,-190.081 694.257,-190.081C642.021,-190.081 614.889,-166.594 614.889,-99.373L614.889,20.087L676.036,20.087L676.036,-96.537C676.036,-123.67 687.781,-135.817 712.482,-135.817C734.754,-135.817 748.521,-123.67 748.521,-96.537L748.521,20.087ZM856.643,27.78C856.643,77.183 887.826,103.507 936.824,103.507C952.619,103.507 962.741,101.077 962.741,101.077L962.741,51.674C962.741,51.674 954.237,52.481 946.946,52.481C927.914,52.481 917.789,46.002 917.789,28.185L917.789,20.087L962.741,20.087L962.741,-29.722L917.789,-29.722L917.789,-184.008L856.643,-184.008L856.643,-29.722L825.868,-29.722L825.868,20.087L856.643,20.087L856.643,27.78M1070.45,20.087L1117.02,20.087L1117.02,-29.722L1070.45,-29.722L1070.45,-109.092C1070.45,-130.96 1081.79,-136.629 1099.61,-136.629C1106.9,-136.629 1117.02,-135.415 1117.02,-135.415L1117.02,-184.413C1117.02,-184.413 1102.85,-187.651 1087.87,-187.651C1038.87,-187.651 1009.31,-165.38 1009.31,-115.978L1009.31,-29.722L978.53,-29.722L978.53,20.087L1009.31,20.087L1009.31,79.614L1070.45,79.614L1070.45,20.087ZM1252.4,26.161C1304.24,26.161 1331.37,2.675 1331.37,-64.547L1331.37,-184.008L1270.22,-184.008L1270.22,-67.381C1270.22,-40.251 1258.48,-28.104 1232.97,-28.104C1209.88,-28.104 1196.12,-40.251 1196.12,-67.381L1196.12,-184.008L1134.97,-184.008L1134.97,99.052L1196.52,99.052L1196.52,0.245C1207.05,15.229 1223.65,26.161 1252.4,26.161M1487.27,-104.637C1487.27,-126.91 1466.21,-143.514 1433.82,-143.514C1418.03,-143.514 1408.71,-136.225 1408.71,-122.455C1408.71,-111.927 1415.19,-103.019 1435.85,-100.186L1471.08,-95.324C1477.15,-94.513 1483.63,-93.3 1487.27,-92.085L1487.27,-104.637ZM1453.26,26.16C1392.92,26.16 1363.76,3.077 1361.34,-40.252L1420.86,-40.252C1421.67,-28.912 1428.15,-20.408 1453.26,-20.408C1475.53,-20.408 1486.06,-27.699 1486.06,-38.63C1486.06,-48.352 1479.98,-51.995 1465,-53.614L1426.13,-57.663C1373.48,-63.331 1349.59,-85.2 1349.59,-124.887C1349.59,-161.736 1372.27,-190.081 1420.46,-190.081C1453.26,-190.081 1472.7,-179.553 1489.7,-158.494L1489.7,-184.008L1545.59,-184.008L1545.59,-49.97C1545.59,6.318 1512.79,26.16 1453.26,26.16M1686.98,26.161C1740.03,26.161 1767.16,2.675 1767.16,-64.547L1767.16,-184.008L1706.01,-184.008L1706.01,-67.381C1706.01,-40.251 1694.27,-28.104 1668.76,-28.104C1645.67,-28.104 1631.91,-40.251 1631.91,-67.381L1631.91,-184.008L1570.76,-184.008L1570.76,20.086L1628.26,20.086L1628.26,-3.402C1636.77,12.393 1654.18,26.161 1686.98,26.161M1896.15,-56.043C1947.98,-62.929 1973.9,-79.126 1973.9,-121.646C1973.9,-164.571 1943.53,-190.082 1879.14,-190.082C1809.09,-190.082 1784.38,-162.143 1783.17,-121.239L1843.51,-121.239C1845.13,-136.225 1855.65,-143.514 1879.14,-143.514C1903.03,-143.514 1912.75,-137.843 1912.75,-126.506C1912.75,-115.978 1904.65,-111.119 1883.6,-108.284L1862.13,-105.447C1817.18,-99.374 1791.27,-81.962 1791.27,-41.466C1791.27,-2.591 1820.02,26.161 1880.36,26.161C1936.24,26.161 1966.21,3.889 1969.04,-40.251L1909.51,-40.251C1907.49,-28.51 1901.01,-21.219 1880.36,-21.219C1860.11,-21.219 1852.42,-28.104 1852.42,-37.014C1852.42,-45.92 1857.28,-50.78 1874.69,-53.211L1896.15,-56.043M2126.97,-104.641C2126.97,-126.911 2105.91,-143.514 2073.52,-143.514C2057.72,-143.514 2048.41,-136.225 2048.41,-122.455C2048.41,-111.927 2054.89,-103.019 2075.54,-100.186L2110.77,-95.324C2116.85,-94.517 2123.32,-93.3 2126.97,-92.085L2126.97,-104.641ZM2092.95,26.16C2032.62,26.16 2003.46,3.077 2001.03,-40.252L2060.56,-40.252C2061.37,-28.912 2067.85,-20.411 2092.95,-20.411C2115.23,-20.411 2125.76,-27.699 2125.76,-38.633C2125.76,-48.352 2119.68,-51.995 2104.7,-53.614L2065.82,-57.663C2013.18,-63.334 1989.29,-85.201 1989.29,-124.887C1989.29,-161.736 2011.96,-190.081 2060.15,-190.081C2092.95,-190.081 2112.39,-179.553 2129.4,-158.494L2129.4,-184.008L2185.28,-184.008L2185.28,-49.97C2185.28,6.315 2152.48,26.16 2092.95,26.16" style="fill:rgb(10,29,61);fill-rule:nonzero;"/>
    </g>
</svg>
